src/svgs/behance.svg

<svg xmlns="http://www.w3.org/2000/svg" viewBox="0 0 24 24" width="512" height="512"><path d="M19 3H5a2 2 0 00-2 2v14a2 2 0 002 2h14a2 2 0 002-2V5a2 2 0 00-2-2zm-4.5 4.573h4.013v1.2H14.5zm-2.028 6.283c0 2.969-3.09 2.872-3.09 2.872H4.315V7h5.062a2.485 2.485 0 012.752 2.59 1.688 1.688 0 01-1.484 1.851c1.955 0 1.822 2.415 1.822 2.415zm7.507-.158h-5.046a1.582 1.582 0 001.712 1.692c1.617 0 1.56-1.046 1.56-1.046h1.712c0 2.777-3.329 2.587-3.329 2.587a3.451 3.451 0 01-3.738-3.718s0-3.738 3.738-3.738c3.937 0 3.386 4.225 3.386 4.225zm-9.572.037c0 1.138-.766 1.255-1.168 1.264H6.545V12.4h2.832s1.023-.014 1.023 1.335zM9.2 10.9H6.545V8.729h2.832s.688 0 .688 1.012S9.66 10.9 9.2 10.9zm8.909 1.5h-3.2a1.739 1.739 0 011.712-1.5 1.449 1.449 0 011.489 1.5z"/></svg>

<svg xmlns="http://www.w3.org/2000/svg" viewBox="0 0 24 24"><path d="M19,3H5A2,2,0,0,0,3,5V19a2,2,0,0,0,2,2H19a2,2,0,0,0,2-2V5A2,2,0,0,0,19,3ZM14.5,7.573h4.013v1.2H14.5Zm-2.028,6.283c0,2.969-3.09,2.872-3.09,2.872H4.315V7H9.377a2.485,2.485,0,0,1,2.752,2.59,1.688,1.688,0,0,1-1.484,1.851C12.6,11.441,12.467,13.856,12.467,13.856Zm7.507-.158H14.933a1.582,1.582,0,0,0,1.712,1.692c1.617,0,1.56-1.046,1.56-1.046h1.712c0,2.777-3.329,2.587-3.329,2.587a3.451,3.451,0,0,1-3.738-3.718s0-3.738,3.738-3.738C20.525,9.475,19.974,13.7,19.974,13.7Zm-9.572.037c0,1.138-.766,1.255-1.168,1.264H6.545V12.4H9.377S10.4,12.386,10.4,13.735ZM9.2,10.9H6.545V8.729H9.377s.688,0,.688,1.012S9.66,10.9,9.2,10.9Zm8.909,1.5h-3.2a1.739,1.739,0,0,1,1.712-1.5A1.449,1.449,0,0,1,18.11,12.4Z"/></svg>
